X:1
T:Title
%%score { ( 1 3 ) | ( 2 4 ) }
L:1/8
M:3/4
K:G
V:1 treble nm="Grand Piano"
V:3 treble 
V:2 bass 
V:4 bass 
V:1
 z2 z[Q:1/4=86] [B,D] [DB][CA] | [Ec]3 [DB] [CA][DB] | [B,G]3 [B,D] GB | d3 G cB | %4
 [FA]3 [FA] [FA][GB] | [Ac]3 [DFA] [DG][DFA] | [DGB]3 [Gd] [B,Gd][CFd] | [DGd][EG] [DGB]2 [CDA]2 | %8
[M:2/4] [B,DG]4 |[M:1/4] G2 |[M:3/4] A4 z2 | G4 z2 | d4 z2 | d4 .e2 | d3 d BG | AB [Ec]2 [Ec]2 | %16
 B4 z2 |[M:3/8] [B,DG]3 |] %18
V:2
 z2 z [G,,G,] [G,,G,][G,,G,] | [G,,G,]3 [G,,G,] [D,F,][D,F,] | %2
 [G,,G,]3 [G,,G,][K:treble] [G,B,D][G,DG] | [G,B,G]3 [B,D] [A,DF][G,DG] | [D,D]3 [D,D] [D,D][D,D] | %5
 [D,D]3 C, B,,D, | G,3 [G,B,] G,,A,, | B,,C, D,2 D,2 |[M:2/4] G,,4 |[M:1/4] [G,B,D]2 | %10
[M:3/4] [D,CD][D,C] [D,C][D,CD] [D,CD][D,C] | G,,G,, G,,2[K:treble] [G,DG]2 | %12
 [G,B,G][G,B,] [G,B,][G,DG][K:bass] [F,D][E,^CE] | z/ A,/D, D,2 [D,C]2 | %14
 [G,B,G]3 [G,B,G] [G,DG][K:bass][G,B,D] | [F,A,D][G,=F] [C,G,]2 [C,G,]2 | %16
 [D,G,D][D,G,] [D,G,][D,B,D] [D,CD][D,CD] |[M:3/8] G,,3 |] %18
V:3
 x6 | x6 | x6 | x6 | x6 | x6 | x6 | x6 |[M:2/4] x4 |[M:1/4] x2 |[M:3/4] z D DB AD | %11
 [B,D][CE] [G,B,D]2 B2 | z G GB AG | .[DF][B,G] [CA]2 F-[Fd] | x6 | x6 | z D DG AA |[M:3/8] x3 |] %18
V:4
 x6 | x6 | x4[K:treble] x2 | x6 | x6 | x6 | x6 | x6 |[M:2/4] x4 |[M:1/4] x2 |[M:3/4] x6 | %11
 x4[K:treble] x2 | x4[K:bass] x2 | .D,2 z2 z2 | x5[K:bass] x | x6 | x6 |[M:3/8] x3 |] %18

